assets/avatar/avatar1-6.svg

<svg fill="none" height="200" viewBox="0 0 200 200" width="200" xmlns="http://www.w3.org/2000/svg" xmlns:xlink="http://www.w3.org/1999/xlink"><linearGradient id="a" gradientUnits="userSpaceOnUse" x1="105.232" x2="105.232" y1="120.667" y2="21.3296"><stop offset="0" stop-color="#f6b704"/><stop offset="1" stop-color="#f6b704"/></linearGradient><clipPath id="b"><rect height="200" rx="100" width="200"/></clipPath><g clip-path="url(#b)"><path d="m121.333 117.333v15c0 2.889-42.6665 1.918-42.6665-2.248 0-3.92.08-21.684 0-39.9597-9.5547-12.3846-9.5547-20.1253-2-28.1253s61.3335-12 61.3335-12 4.035 38.8067 4.667 49.3333c.254 4.2337 3 17.9997-7.667 17.9997z" fill="#d39c72"/><path d="m121.317 116.052c-8.686-.948-17.08-3.69-24.6505-8.052 0 0 5.3335 12.667 24.6505 16.104z" fill="#ffd7b8"/><path d="m170 162.205c4.231 8.603 7.564 22.825 10 42.666h-160c2.4364-19.843 5.7698-34.065 10-42.666 4.216-8.574 43.3333-25.073 43.3333-25.073s.7787-7.542 2.6667-8.623c1.888-1.082 45.751-1.081 48 0 2.249 1.08 2.667 8.619 2.667 8.619s39.125 16.521 43.333 25.077z" fill="#000"/><path d="m87.3468 70.1373c-2.12-1.8207-4.696-3.0467-8.3373-1.1547-8.6327 4.482-2.9034 21.774 6.7573 21.4367 3.3333-.116 1.8054 6.5267-7.1 10.9137 0-6.9997-10.6666-24.333-11.6-40.1144-10.7333-3.9966-8.0666-19.988-.698-19.988-1.176-14.6607 22.298-22.2327 31.3873-13.82 9.2439-11.0793 32.5769-5.4127 33.9859 4.1993 16.045-8.5646 26.591 16.0547 11.568 25.6121-6.182 3.9333-20.643 5.43-41.519 5.43-10.0169 0-4.2562 23.4466-1.124 31.0146 4 9.6664 26.333 11.0004 33.333 10.0004 5.467-.781 8.333-3 8.667-4.3337 5 13.3337-1.334 21.3337-11.334 21.3337-17 0-33.9995-5-36.6662-17.334-2.1227-9.815-2.006-25.6557-7.32-33.1957z" fill="url(#a)"/></g></svg>

<svg width="200" height="200" viewBox="0 0 200 200" fill="none" xmlns="http://www.w3.org/2000/svg">
<g clip-path="url(#clip0_253_2795)">
<path d="M121.333 117.333V132.333C121.333 135.222 78.6665 134.251 78.6665 130.085C78.6665 126.165 78.7465 108.401 78.6665 90.1253C69.1118 77.7407 69.1118 70 76.6665 62C84.2212 54 138 50 138 50C138 50 142.035 88.8067 142.667 99.3333C142.921 103.567 145.667 117.333 135 117.333H121.333Z" fill="#D39C72"/>
<g style="mix-blend-mode:multiply">
<path d="M121.317 116.052C112.631 115.104 104.237 112.362 96.6665 108C96.6665 108 102 120.667 121.317 124.104V116.052Z" fill="#FFD7B8"/>
</g>
<path d="M170 162.205C174.231 170.808 177.564 185.03 180 204.871H20C22.4364 185.028 25.7698 170.806 30 162.205C34.216 153.631 73.3333 137.132 73.3333 137.132C73.3333 137.132 74.112 129.59 76 128.509C77.888 127.427 121.751 127.428 124 128.509C126.249 129.589 126.667 137.128 126.667 137.128C126.667 137.128 165.792 153.649 170 162.205Z" fill="black"/>
<path d="M87.3468 70.1373C85.2268 68.3166 82.6508 67.0906 79.0095 68.9826C70.3768 73.4646 76.1061 90.7566 85.7668 90.4193C89.1001 90.3033 87.5722 96.946 78.6668 101.333C78.6668 94.3333 68.0002 77 67.0668 61.2186C56.3335 57.222 59.0002 41.2306 66.3688 41.2306C65.1928 26.5699 88.6668 18.9979 97.7561 27.4106C107 16.3313 130.333 21.9979 131.742 31.6099C147.787 23.0453 158.333 47.6646 143.31 57.222C137.128 61.1553 122.667 62.652 101.791 62.652C91.7741 62.652 97.5348 86.0986 100.667 93.6666C104.667 103.333 127 104.667 134 103.667C139.467 102.886 142.333 100.667 142.667 99.3333C147.667 112.667 141.333 120.667 131.333 120.667C114.333 120.667 97.3335 115.667 94.6668 103.333C92.5441 93.518 92.6608 77.6773 87.3468 70.1373Z" fill="url(#paint0_linear_253_2795)"/>
</g>
<defs>
<linearGradient id="paint0_linear_253_2795" x1="105.232" y1="120.667" x2="105.232" y2="21.3296" gradientUnits="userSpaceOnUse">
<stop stop-color="#F6B704"/>
<stop offset="1" stop-color="#F6B704"/>
</linearGradient>
<clipPath id="clip0_253_2795">
<rect width="200" height="200" rx="100" fill="white"/>
</clipPath>
</defs>
</svg>
